public/assets/routes_avatar/financialDocumentsCollection.svg

<?xml version="1.0" encoding="UTF-8"?>
<svg width="60px" height="60px" viewBox="0 0 60 60" version="1.1" xmlns="http://www.w3.org/2000/svg" xmlns:xlink="http://www.w3.org/1999/xlink">
    <!-- Generator: Sketch 49.3 (51167) - http://www.bohemiancoding.com/sketch -->
    <title>销项管理-财务凭证采集</title>
    <desc>Created with Sketch.</desc>
    <defs>
        <path d="M1.83333333,7.1956411 C1.37309604,7.1956411 1,7.55413856 1,7.99636759 C1,8.43859661 1.37309604,8.79709407 1.83333333,8.79709407 L5.16666667,8.79709407 L5.16666667,11.1992735 C5.16666667,11.6415025 5.53976271,12 6,12 C6.46023729,12 6.83333333,11.6415025 6.83333333,11.1992735 L6.83333333,8.79709407 L10.1666667,8.79709407 C10.626904,8.79709407 11,8.43859661 11,7.99636759 C11,7.55413856 10.626904,7.1956411 10.1666667,7.1956411 L6.83333333,7.1956411 L6.83333333,5.59418814 L10.1666667,5.59418814 C10.626904,5.59418814 11,5.23569068 11,4.79346165 C11,4.35123263 10.626904,3.99273517 10.1666667,3.99273517 L7.26,3.99273517 L7.23166667,3.96551047 L9.89833333,1.40478718 C10.2148573,1.0743637 10.2038373,0.562869922 9.8733527,0.245316624 C9.54286813,-0.0722366749 9.01054551,-0.0828255432 8.66666667,0.221313436 L6,2.78363818 L3.33333333,0.221313436 C2.98945449,-0.0828255432 2.45713187,-0.0722366749 2.1266473,0.245316624 C1.79616273,0.562869922 1.78514267,1.0743637 2.10166667,1.40478718 L4.76833333,3.96711192 L4.74,3.99273517 L1.83333333,3.99273517 C1.37309605,3.99273518 1.00000002,4.35123264 1.00000002,4.79346165 C1.00000002,5.23569067 1.37309605,5.59418812 1.83333333,5.59418814 L5.16666667,5.59418814 L5.16666667,7.1956411 L1.83333333,7.1956411 Z M28.9426388,26.8561008 L27.8706892,26.8561008 L27.8706892,8.63295789 C27.8706892,7.44891507 26.9108329,6.48905872 25.72679,6.48905872 L23.5828909,6.48905872 C22.398848,6.48905872 21.4389917,7.44891507 21.4389917,8.63295789 L21.4389917,26.8561008 L19.2950925,26.8561008 L19.2950925,16.136605 C19.2950925,14.9525622 18.3352362,13.9927058 17.1511934,13.9927058 L15.0072942,13.9927058 C13.8232514,13.9927058 12.863395,14.9525622 12.863395,16.136605 L12.863395,26.8561008 L10.7194958,26.8561008 L10.7194958,20.4244033 C10.7194958,19.2403605 9.75963949,18.2805042 8.57559668,18.2805042 L6.43169751,18.2805042 C5.24765469,18.2805042 4.28779834,19.2403605 4.28779834,20.4244033 L4.28779834,26.8561008 L1.07194958,26.8561008 C0.479928177,26.8561008 0,27.336029 0,27.9280504 C0,28.5200718 0.479928177,29 1.07194958,29 L28.9426388,29 C29.5346602,29 30.0145884,28.5200718 30.0145884,27.9280504 C30.0145884,27.336029 29.5346602,26.8561008 28.9426388,26.8561008 Z M8.57559668,26.8561008 L6.43169751,26.8561008 L6.43169751,20.4244033 L8.57559668,20.4244033 L8.57559668,26.8561008 Z M17.1511934,26.8561008 L15.0072942,26.8561008 L15.0072942,16.136605 L17.1511934,16.136605 L17.1511934,26.8561008 Z M25.72679,26.8561008 L23.5828909,26.8561008 L23.5828909,8.63295789 L25.72679,8.63295789 L25.72679,26.8561008 Z" id="path-1"></path>
        <path d="M10.7584448,10.5172281 L5.24105118,10.5172281 C5.10780344,10.5172281 5,10.6250315 5,10.7582792 C5,10.891527 5.10780344,10.9993304 5.24105118,10.9993304 L10.7584448,10.9993304 C10.8916926,10.9993304 10.999496,10.891527 10.999496,10.7582792 C10.999496,10.6250315 10.8916926,10.5172281 10.7584448,10.5172281 Z M6.55344093,9.72711585 L8.1303174,9.05953801 C8.15576169,9.04882462 8.17852764,9.03342413 8.19861523,9.01400612 L10.8582132,6.3544081 C11.0463671,6.16625426 11.0477063,5.8595836 10.8595524,5.67142976 L10.3285702,5.14044758 C10.1404164,4.95229374 9.83374574,4.95363291 9.6455919,5.14178675 L6.98599388,7.80138477 C6.96657587,7.82080278 6.95117538,7.84423831 6.94046199,7.8696826 L6.27221456,9.44588948 C6.23471771,9.53427491 6.26083159,9.62332993 6.31774645,9.68091438 C6.37466131,9.73849883 6.46438592,9.76461271 6.55344093,9.72711585 Z M9.98641148,5.48260634 L9.98775066,5.48126716 L10.5180633,6.01157976 L10.5167241,6.01291893 L10.1015804,6.42806263 L9.57126778,5.89775003 L9.98641148,5.48260634 Z M7.36364073,8.10537709 L9.2304482,6.23856962 L9.76076079,6.76888221 L7.89395333,8.63568968 L6.97394133,9.02538909 L7.36364073,8.10537709 Z" id="path-2"></path>
    </defs>
    <g id="icon" stroke="none" stroke-width="1" fill="none" fill-rule="evenodd">
        <g id="销项管理-财务凭证采集">
            <circle id="Oval-Copy" fill="#00D6EB" cx="30" cy="30" r="30"></circle>
            <g id="Group-45" transform="translate(14.000000, 15.000000)">
                <g id="Shape" fill-rule="nonzero">
                    <use fill="#FFFFFF" fill-rule="evenodd" xlink:href="#path-1"></use>
                    <path stroke="#00D6EB" stroke-width="0.3" d="M1.83333333,7.3456411 C1.45462883,7.3456411 1.15,7.63835035 1.15,7.99636759 C1.15,8.35438482 1.45462883,8.64709407 1.83333333,8.64709407 L5.16666667,8.64709407 L5.31666667,8.79709407 L5.31666667,11.1992735 C5.31666667,11.5572908 5.6212955,11.85 6,11.85 C6.3787045,11.85 6.68333333,11.5572908 6.68333333,11.1992735 L6.68333333,8.79709407 L6.83333333,8.64709407 L10.1666667,8.64709407 C10.5453712,8.64709407 10.85,8.35438482 10.85,7.99636759 C10.85,7.63835035 10.5453712,7.3456411 10.1666667,7.3456411 L6.83333333,7.3456411 L6.68333333,7.1956411 L6.68333333,5.59418814 L6.83333333,5.44418814 L10.1666667,5.44418814 C10.5453712,5.44418814 10.85,5.15147889 10.85,4.79346165 C10.85,4.43544442 10.5453712,4.14273517 10.1666667,4.14273517 L7.26,4.14273517 L7.15607117,4.10089615 L7.12773783,4.07367145 L7.12777162,3.85731703 L9.79001352,1.3010239 C10.0492543,1.03039913 10.0402773,0.613732989 9.76942386,0.353477604 C9.49530898,0.0900883464 9.05143675,0.0812589175 8.7705955,0.329474416 L6.10392883,2.89179916 L5.89607117,2.89179916 L3.23395853,0.333672898 C2.94856325,0.0812589175 2.50469102,0.0900883464 2.23057614,0.353477604 C1.95972274,0.613732989 1.95074572,1.03039913 2.2055955,1.2966262 L4.87226217,3.85895094 L4.86894513,4.07836509 L4.84061179,4.10398834 L4.74,4.14273517 L1.83333334,4.14273517 C1.45462884,4.14273518 1.15000002,4.43544443 1.15000002,4.79346165 C1.15000002,5.15147888 1.45462884,5.44418813 1.83333333,5.44418814 L5.16666667,5.44418814 L5.31666667,5.59418814 L5.31666667,7.1956411 L5.16666667,7.3456411 L1.83333333,7.3456411 Z M28.9426388,27.0061008 L27.8706892,27.0061008 L27.7206892,26.8561008 L27.7206892,8.63295789 C27.7206892,7.53175779 26.8279901,6.63905872 25.72679,6.63905872 L23.5828909,6.63905872 C22.4816908,6.63905872 21.5889917,7.53175779 21.5889917,8.63295789 L21.5889917,26.8561008 L21.4389917,27.0061008 L19.2950925,27.0061008 L19.1450925,26.8561008 L19.1450925,16.136605 C19.1450925,15.0354049 18.2523935,14.1427058 17.1511934,14.1427058 L15.0072942,14.1427058 C13.9060941,14.1427058 13.013395,15.0354049 13.013395,16.136605 L13.013395,26.8561008 L12.863395,27.0061008 L10.7194958,27.0061008 L10.5694958,26.8561008 L10.5694958,20.4244033 C10.5694958,19.3232032 9.67679678,18.4305042 8.57559668,18.4305042 L6.43169751,18.4305042 C5.3304974,18.4305042 4.43779834,19.3232032 4.43779834,20.4244033 L4.43779834,26.8561008 L4.28779834,27.0061008 L1.07194958,27.0061008 C0.562770889,27.0061008 0.15,27.4188717 0.15,27.9280504 C0.15,28.4372291 0.562770889,28.85 1.07194958,28.85 L28.9426388,28.85 C29.4518175,28.85 29.8645884,28.4372291 29.8645884,27.9280504 C29.8645884,27.4188717 29.4518175,27.0061008 28.9426388,27.0061008 Z M8.57559668,27.0061008 L6.43169751,27.0061008 L6.28169751,26.8561008 L6.28169751,20.4244033 L6.43169751,20.2744033 L8.57559668,20.2744033 L8.72559668,20.4244033 L8.72559668,26.8561008 L8.57559668,27.0061008 Z M17.1511934,27.0061008 L15.0072942,27.0061008 L14.8572942,26.8561008 L14.8572942,16.136605 L15.0072942,15.986605 L17.1511934,15.986605 L17.3011934,16.136605 L17.3011934,26.8561008 L17.1511934,27.0061008 Z M25.72679,27.0061008 L23.5828909,27.0061008 L23.4328909,26.8561008 L23.4328909,8.63295789 L23.5828909,8.48295789 L25.72679,8.48295789 L25.87679,8.63295789 L25.87679,26.8561008 L25.72679,27.0061008 Z"></path>
                </g>
                <g id="Group-15" transform="translate(17.000000, 16.000000)">
                    <circle id="Oval-14" fill="#00D6EB" cx="7.5" cy="7.5" r="7.5"></circle>
                    <circle id="Oval-14" stroke="#FFFFFF" stroke-width="1.5" fill="#00D6EB" cx="8" cy="8" r="6"></circle>
                    <g id="Shape" fill-rule="nonzero">
                        <use fill="#FFFFFF" fill-rule="evenodd" xlink:href="#path-2"></use>
                        <path stroke="#FFFFFF" stroke-width="0.2" d="M10.7584448,10.4172281 C10.9469211,10.4172281 11.099496,10.569803 11.099496,10.7582792 C11.099496,10.9467554 10.9469211,11.0993304 10.7584448,11.0993304 L5.24105118,11.0993304 C5.05257497,11.0993304 4.9,10.9467554 4.9,10.7582792 C4.9,10.569803 5.05257497,10.4172281 5.24105118,10.4172281 L10.7584448,10.4172281 Z M6.59242662,9.8192034 L6.59224663,9.81927939 C6.46948171,9.87096989 6.33558068,9.84121411 6.24662347,9.75121034 C6.15782221,9.66136435 6.12848062,9.52864165 6.18014701,9.40685659 L6.84829846,7.8308769 C6.86410352,7.79333988 6.88682603,7.75913127 6.91528321,7.73067409 L9.57488122,5.07107607 C9.80225736,4.84369993 10.1722426,4.84269862 10.3992809,5.0697369 L10.9302631,5.60071908 C11.1573014,5.82775736 11.1563001,6.19774264 10.9289239,6.42511878 L8.26811744,9.08590495 C8.2390036,9.11404833 8.20582746,9.13624708 8.16930308,9.15162555 L6.59242662,9.8192034 Z M9.98775066,5.62268852 L9.71268914,5.89775003 L10.1015804,6.28664127 L10.3766419,6.01157976 L9.98775066,5.62268852 Z M7.44812398,8.16231519 L7.16130356,8.83944794 L7.82324265,8.564979 L9.61933944,6.76888221 L9.2304482,6.37999097 L7.44812398,8.16231519 Z"></path>
                    </g>
                </g>
            </g>
        </g>
    </g>
</svg>

<svg width="60" height="60" xmlns="http://www.w3.org/2000/svg" xmlns:xlink="http://www.w3.org/1999/xlink"><defs><path d="M1.833 7.196c-.46 0-.833.358-.833.8 0 .443.373.801.833.801h3.334V11.2c0 .443.373.801.833.801.46 0 .833-.358.833-.8V8.796h3.334c.46 0 .833-.358.833-.8 0-.443-.373-.801-.833-.801H6.833V5.594h3.334c.46 0 .833-.358.833-.8 0-.443-.373-.801-.833-.801H7.26l-.028-.027 2.666-2.561a.814.814 0 0 0-.025-1.16.897.897 0 0 0-1.206-.024L6 2.784 3.333.22a.897.897 0 0 0-1.206.024.814.814 0 0 0-.025 1.16l2.666 2.562-.028.026H1.833c-.46 0-.833.358-.833.8 0 .443.373.801.833.801h3.334v1.602H1.833zm27.11 19.66H27.87V8.633c0-1.184-.96-2.144-2.144-2.144h-2.144c-1.184 0-2.144.96-2.144 2.144v18.223h-2.144v-10.72c0-1.183-.96-2.143-2.144-2.143h-2.144c-1.184 0-2.144.96-2.144 2.144v10.72H10.72v-6.433c0-1.184-.96-2.143-2.143-2.143H6.432c-1.184 0-2.144.96-2.144 2.143v6.432H1.072a1.072 1.072 0 0 0 0 2.144h27.87a1.072 1.072 0 0 0 0-2.144zm-20.367 0H6.432v-6.432h2.144v6.432zm8.575 0h-2.144v-10.72h2.144v10.72zm8.576 0h-2.144V8.633h2.144v18.223z" id="a"/><path d="M10.758 10.517H5.241a.24.24 0 1 0 0 .482h5.517a.24.24 0 1 0 0-.482zm-4.205-.79L8.13 9.06a.222.222 0 0 0 .069-.046l2.66-2.66a.484.484 0 0 0 0-.683l-.53-.53a.484.484 0 0 0-.683 0l-2.66 2.66a.214.214 0 0 0-.046.069l-.668 1.576a.212.212 0 0 0 .046.235.212.212 0 0 0 .235.046zm3.433-4.244l.002-.002.53.53-.001.002-.415.415-.53-.53.414-.415zM7.364 8.105L9.23 6.24l.53.53-1.866 1.867-.92.39.39-.92z" id="b"/></defs><g fill="none" fill-rule="evenodd"><circle fill="#00D6EB" cx="30" cy="30" r="30"/><g fill-rule="nonzero" transform="translate(14 15)"><use fill="#FFF" fill-rule="evenodd" xlink:href="#a"/><path stroke="#00D6EB" stroke-width=".3" d="M1.833 7.346c-.378 0-.683.292-.683.65 0 .358.305.651.683.651h3.334l.15.15V11.2c0 .358.304.651.683.651.379 0 .683-.293.683-.65V8.796l.15-.15h3.334c.378 0 .683-.293.683-.65 0-.359-.305-.651-.683-.651H6.833l-.15-.15V5.594l.15-.15h3.334c.378 0 .683-.293.683-.65 0-.359-.305-.651-.683-.651H7.26L7.156 4.1l-.028-.027v-.217L9.79 1.301a.664.664 0 0 0-.02-.948.746.746 0 0 0-1-.024L6.105 2.892h-.208L3.234.334a.747.747 0 0 0-1.003.02.663.663 0 0 0-.025.943l2.666 2.562-.003.22-.028.025-.101.039H1.833c-.378 0-.683.292-.683.65 0 .358.305.651.683.651h3.334l.15.15v1.602l-.15.15H1.833zm27.11 19.66H27.87l-.15-.15V8.633a1.994 1.994 0 0 0-1.994-1.994h-2.144a1.994 1.994 0 0 0-1.994 1.994v18.223l-.15.15h-2.144l-.15-.15v-10.72a1.994 1.994 0 0 0-1.994-1.993h-2.144a1.994 1.994 0 0 0-1.994 1.994v10.72l-.15.15H10.72l-.15-.15v-6.433a1.994 1.994 0 0 0-1.993-1.993H6.432a1.994 1.994 0 0 0-1.994 1.993v6.432l-.15.15H1.072a.922.922 0 0 0 0 1.844h27.87a.922.922 0 0 0 0-1.844zm-20.367 0H6.432l-.15-.15v-6.432l.15-.15h2.144l.15.15v6.432l-.15.15zm8.575 0h-2.144l-.15-.15v-10.72l.15-.15h2.144l.15.15v10.72l-.15.15zm8.576 0h-2.144l-.15-.15V8.633l.15-.15h2.144l.15.15v18.223l-.15.15z"/></g><g transform="translate(31 31)"><circle fill="#00D6EB" cx="7.5" cy="7.5" r="7.5"/><circle stroke="#FFF" stroke-width="1.5" fill="#00D6EB" cx="8" cy="8" r="6"/><g fill-rule="nonzero"><use fill="#FFF" fill-rule="evenodd" xlink:href="#b"/><path stroke="#FFF" stroke-width=".2" d="M10.758 10.417a.34.34 0 1 1 0 .682H5.241a.34.34 0 1 1 0-.682h5.517zM6.592 9.82h0a.311.311 0 0 1-.345-.068.312.312 0 0 1-.067-.344l.668-1.576a.314.314 0 0 1 .067-.1l2.66-2.66a.584.584 0 0 1 .824-.001l.531.53a.584.584 0 0 1-.001.825l-2.66 2.66a.321.321 0 0 1-.1.067l-1.577.667zm3.396-4.196l-.275.275.389.389.275-.275-.39-.39zm-2.54 2.54l-.287.676.662-.274L9.62 6.769 9.23 6.38 7.448 8.162z"/></g></g></g></svg>
